RestoDelMundo/Paises Bajos/Otras Categorias/Vv Osv Oud Beijerland.svg

<svg xmlns="http://www.w3.org/2000/svg" viewBox="0 0 612 792"><ellipse cx="307.501" cy="396.39" fill="#005d8e" rx="283.001" ry="283" transform="rotate(-45 307.501 396.39)"/><path fill="#fff" d="M307.502 668.622c-150.35 0-272.232-121.88-272.232-272.231h544.459c0 150.351-121.883 272.231-272.227 272.231M368.645 298.747l12.184 50.553c7.819 31.88 29.254 32.24 37.453.475l13.539-52.452 14.589-58.287c3.232-13.082-.832-28.672-9.104-34.374-8.344-5.713-17.676.589-20.603 14.033l-16.924 76.009-15.496-72.207c-3.155-14.985-12.856-23.548-21.355-19.027-8.501 4.759-12.558 20.813-8.875 35.686zM205.22 373.453c28.658 0 51.893-38.54 51.893-86.241 0-47.467-23.235-86.122-51.893-86.239-28.73 0-51.894 38.537-51.894 86.118.001 47.699 23.164 86.241 51.894 86.362m0-124.901c11.21.118 20.304 17.489 20.304 38.66 0 21.405-9.094 38.662-20.304 38.662-11.281 0-20.309-17.37-20.309-38.783.001-21.294 9.028-38.539 20.309-38.539M305.621 329.795c-3.908 0-8.795-2.384-15.118-7.733-2.783-2.145-10.074-5.591-12.185-5.591-7.44 0-13.685 10.708-13.685 23.194 0 18.915 17.374 33.788 39.633 33.788 23.838 0 40.463-21.77 40.463-53.056 0-17.607-6.471-34.377-15.495-40.679l-24.968-17.245c-2.554-1.435-4.514-3.57-5.564-6.187-2.186-4.996.825-11.538 5.266-11.538 3.454 0 8.72 2.612 16.993 8.2 2.412 1.909 5.262 2.862 7.597 2.862 6.918 0 12.639-10.471 12.639-23.557 0-16.771-16.172-31.28-35.049-31.28-9.7-1.074-20.16 4.518-28.048 14.869-8.203 10.701-11.585 22.002-11.585 37.824 0 22.718 5.789 35.569 20.007 44.253l19.626 12.133c4.063 2.019 6.994 6.066 7.372 10.345.455 4.991-3.308 9.398-7.899 9.398"/><path fill="#005d8e" d="M498.602 441.528h-94.705c-21.548 0-27.906 15.281-12.722 30.566l36.618 36.851c-30.608 31.695-72.572 51.248-120.293 51.248s-89.686-19.553-120.294-51.248l36.619-36.851c15.185-15.285 8.826-30.566-12.721-30.566h-94.706c-22.185 0-31.921 9.343-31.792 26.642-.129 88.584 118.606 174.594 222.894 174.594 104.287 0 223.023-86.01 222.894-174.594.129-17.299-9.607-26.642-31.792-26.642"/><path fill="#fff" d="M307.5 631.996c-100.615 0-212.238-83.255-212.124-163.854-.072-10.223 3.603-15.843 21.022-15.843h21.406l2.134 4.528c3.952 9.845 8.765 19.248 14.674 27.881 2.616 4.807 5.748 9.254 9.088 13.525 32.856 44.244 84.413 72.731 143.799 72.731 59.385 0 110.942-28.487 143.799-72.731 3.341-4.271 6.473-8.719 9.088-13.525 5.91-8.633 10.723-18.036 14.675-27.881l2.134-4.528h21.406c17.42 0 21.096 5.62 21.023 15.843.114 80.599-111.509 163.854-212.124 163.854"/><path fill="#005d8e" d="m388.84 601.777-2.532-6.001c-1.334-3.114-4.228-4.421-7.4-3.363 3.521-1.677 5.599-5.523 4.604-8.57-1.618-4.989-6.18-7.339-11.096-5.735l-13.913 4.521 9.267 28.506 5.554-1.809-3.752-11.544 5.546-1.802c.974-.318 1.923-.391 2.796-.222 1.618.364 2.959 1.643 3.763 3.607l1.721 4.293c.373.935.689 1.348 1.463 1.923l5.471-1.782-.908-.858zm-14.388-10.308-6.264 2.035-2.69-8.266 6.401-2.08c2.795-.906 5.297.149 6.079 2.564.816 2.505-.602 4.795-3.526 5.747M321.294 590.462l-5.85.292 1.134 22.456c.1 2.078-1.566 3.827-3.69 3.934-2.154.108-3.971-1.468-4.077-3.546l-.17-3.292-5.536.277.163 3.291c.072 1.349.42 2.627 1.058 3.731 1.718 3.052 4.853 4.528 9.116 4.31 5.991-.298 9.262-3.599 8.983-9.111zM403.286 591.297l-11.23-22.37-5.222 2.626 13.445 26.791 18.483-9.281-2.215-4.421ZM418.257 553.341l8.747 30.474 5.152-3.614-2.101-6.398 8.834-6.188 5.294 4.157 5.158-3.61-25.608-18.659zm16.95 11.364-6.628 4.642-4.339-13.24zM339.369 613.38l-1.94-8.153 13.565-3.221-1.142-4.826-13.562 3.22-1.558-6.56 15.754-3.741-1.143-4.809-21.441 5.079 6.918 29.166 21.434-5.079-1.136-4.818ZM484.736 505.567c-6.823-4.902-15.346-4.319-19.382 1.3l-7.304 10.168 24.339 17.487 7.302-10.165c4.228-5.875 2.177-13.658-4.955-18.79m.32 17.033-3.148 4.374-16.539-11.884 3.142-4.378c2.579-3.583 7.948-3.711 12.701-.29 5.604 4.019 6.845 7.995 3.844 12.178M450.021 526.479l14.034 14.578-22.889-6.055-4.746 4.571 20.783 21.598 4.213-4.05-14.55-15.118 23.723 6.278 4.421-4.249-20.786-21.593ZM175.854 537.838l-14.137 14.464c-2.322 2.373-6.16 2.373-8.566.011-2.413-2.357-2.49-6.181-.168-8.55l14.137-14.468-4.179-4.088-15.401 15.752c-3.479 3.562-2.464 10.176 2.254 14.78 4.726 4.624 11.359 5.49 14.835 1.937l15.407-15.753zM151.78 508.627c-4.754-6.737-13.727-7.704-21.292-2.37-7.592 5.356-9.656 14.135-4.911 20.859 4.733 6.707 13.703 7.718 21.293 2.362 7.582-5.347 9.642-14.148 4.91-20.851m-8.308 15.985c-5.192 3.66-11.131 3.504-13.854-.348-2.72-3.859-.88-9.522 4.247-13.14 5.179-3.655 11.148-3.521 13.857.325 2.73 3.867.882 9.545-4.25 13.163M195.985 553.71l-10.207-7.252-17.352 24.434 10.203 7.251c5.896 4.195 13.673 2.103 18.76-5.058 4.865-6.853 4.243-15.367-1.404-19.375m-3.471 15.879c-3.996 5.619-7.96 6.881-12.147 3.909l-4.399-3.129 11.793-16.604 4.399 3.131c3.59 2.545 3.746 7.914.354 12.693M246.186 580.045l-14.047-5.845-11.515 27.677 13.628 5.668c1.386.575 2.827.888 4.23.874 3.449-.015 6.445-1.944 7.704-4.976 1.429-3.434.237-7.584-2.743-9.669 3.523.222 5.917-1.07 7.077-3.866 1.665-3.987-.168-8.124-4.334-9.863m-5.227 20.355c-1.036 2.498-3.91 3.278-7.067 1.965l-6.086-2.532 3.453-8.3 6.322 2.633c3.129 1.295 4.435 3.71 3.378 6.234m4.158-12.211c-.942 2.273-3.263 3.046-5.817 1.982l-6.373-2.654 2.883-6.919 6.865 2.858c2.187.912 3.207 2.898 2.442 4.733M203.034 583.615l2.173-4.278 10.69 5.43-2.172 4.279ZM253.958 613.819l21.428 5.108 1.146-4.81-15.742-3.756 1.943-8.151 13.56 3.236 1.15-4.826-13.559-3.232 1.558-6.567 15.747 3.764 1.149-4.813-21.426-5.117ZM287.333 620.277l1.528-29.933 5.838.298-1.529 29.933Z"/></svg>

<svg enable-background="new 0 0 612 792" viewBox="0 0 612 792" xmlns="http://www.w3.org/2000/svg"><ellipse cx="307.501" cy="396.39" fill="#005d8e" rx="283.001" ry="283" transform="matrix(.7071 -.7071 .7071 .7071 -190.2252 333.536)"/><path d="M 307.502 668.622 c -150.35 0 -272.232 -121.88 -272.232 -272.231 h 544.459 C 579.729 546.742 457.846 668.622 307.502 668.622 z" fill="#fff"/><path d="M 368.645 298.747 l 12.184 50.553 c 7.819 31.88 29.254 32.24 37.453 .475 l 13.539 -52.452 l 14.589 -58.287 c 3.232 -13.082 -.832 -28.672 -9.104 -34.374 c -8.344 -5.713 -17.676 .589 -20.603 14.033 l -16.924 76.009 l -15.496 -72.207 c -3.155 -14.985 -12.856 -23.548 -21.355 -19.027 c -8.501 4.759 -12.558 20.813 -8.875 35.686 L 368.645 298.747 z" fill="#fff"/><path d="M 205.22 373.453 c 28.658 0 51.893 -38.54 51.893 -86.241 c 0 -47.467 -23.235 -86.122 -51.893 -86.239 c -28.73 0 -51.894 38.537 -51.894 86.118 C 153.327 334.79 176.49 373.332 205.22 373.453 z M 205.22 248.552 c 11.21 .118 20.304 17.489 20.304 38.66 c 0 21.405 -9.094 38.662 -20.304 38.662 c -11.281 0 -20.309 -17.37 -20.309 -38.783 C 184.912 265.797 193.939 248.552 205.22 248.552 z" fill="#fff"/><path d="M 305.621 329.795 c -3.908 0 -8.795 -2.384 -15.118 -7.733 c -2.783 -2.145 -10.074 -5.591 -12.185 -5.591 c -7.44 0 -13.685 10.708 -13.685 23.194 c 0 18.915 17.374 33.788 39.633 33.788 c 23.838 0 40.463 -21.77 40.463 -53.056 c 0 -17.607 -6.471 -34.377 -15.495 -40.679 l -24.968 -17.245 c -2.554 -1.435 -4.514 -3.57 -5.564 -6.187 c -2.186 -4.996 .825 -11.538 5.266 -11.538 c 3.454 0 8.72 2.612 16.993 8.2 c 2.412 1.909 5.262 2.862 7.597 2.862 c 6.918 0 12.639 -10.471 12.639 -23.557 c 0 -16.771 -16.172 -31.28 -35.049 -31.28 c -9.7 -1.074 -20.16 4.518 -28.048 14.869 c -8.203 10.701 -11.585 22.002 -11.585 37.824 c 0 22.718 5.789 35.569 20.007 44.253 l 19.626 12.133 c 4.063 2.019 6.994 6.066 7.372 10.345 C 313.975 325.388 310.212 329.795 305.621 329.795 z" fill="#fff"/><path d="M 498.602 441.528 h -94.705 c -21.548 0 -27.906 15.281 -12.722 30.566 l 36.618 36.851 c -30.608 31.695 -72.572 51.248 -120.293 51.248 s -89.686 -19.553 -120.294 -51.248 l 36.619 -36.851 c 15.185 -15.285 8.826 -30.566 -12.721 -30.566 h -94.706 c -22.185 0 -31.921 9.343 -31.792 26.642 C 84.477 556.754 203.212 642.764 307.5 642.764 c 104.287 0 223.023 -86.01 222.894 -174.594 C 530.523 450.871 520.787 441.528 498.602 441.528 z" fill="#005d8e"/><path d="M 307.5 631.996 c -100.615 0 -212.238 -83.255 -212.124 -163.854 c -.072 -10.223 3.603 -15.843 21.022 -15.843 h 21.406 l 2.134 4.528 c 3.952 9.845 8.765 19.248 14.674 27.881 c 2.616 4.807 5.748 9.254 9.088 13.525 c 32.856 44.244 84.413 72.731 143.799 72.731 c 59.385 0 110.942 -28.487 143.799 -72.731 c 3.341 -4.271 6.473 -8.719 9.088 -13.525 c 5.91 -8.633 10.723 -18.036 14.675 -27.881 l 2.134 -4.528 h 21.406 c 17.42 0 21.096 5.62 21.023 15.843 C 519.738 548.741 408.115 631.996 307.5 631.996 z" fill="#fff"/><path d="M 388.84 601.777 l -2.532 -6.001 c -1.334 -3.114 -4.228 -4.421 -7.4 -3.363 c 3.521 -1.677 5.599 -5.523 4.604 -8.57 c -1.618 -4.989 -6.18 -7.339 -11.096 -5.735 l -13.913 4.521 l 9.267 28.506 l 5.554 -1.809 l -3.752 -11.544 l 5.546 -1.802 c .974 -.318 1.923 -.391 2.796 -.222 c 1.618 .364 2.959 1.643 3.763 3.607 l 1.721 4.293 c .373 .935 .689 1.348 1.463 1.923 l 5.471 -1.782 l -.908 -.858 L 388.84 601.777 z M 374.452 591.469 l -6.264 2.035 l -2.69 -8.266 l 6.401 -2.08 c 2.795 -.906 5.297 .149 6.079 2.564 C 378.794 588.227 377.376 590.517 374.452 591.469 z" fill="#005d8e"/><path d="M 321.294 590.462 l -5.85 .292 l 1.134 22.456 c .1 2.078 -1.566 3.827 -3.69 3.934 c -2.154 .108 -3.971 -1.468 -4.077 -3.546 l -.17 -3.292 l -5.536 .277 l .163 3.291 c .072 1.349 .42 2.627 1.058 3.731 c 1.718 3.052 4.853 4.528 9.116 4.31 c 5.991 -.298 9.262 -3.599 8.983 -9.111 L 321.294 590.462 z" fill="#005d8e"/><path d="M 403.286 591.297 L 392.056 568.927 L 386.834 571.553 L 400.279 598.344 L 418.762 589.063 L 416.547 584.642 Z" fill="#005d8e"/><path d="M 418.257 553.341 l 8.747 30.474 l 5.152 -3.614 l -2.101 -6.398 l 8.834 -6.188 l 5.294 4.157 l 5.158 -3.61 l -25.608 -18.659 L 418.257 553.341 z M 435.207 564.705 l -6.628 4.642 l -4.339 -13.24 L 435.207 564.705 z" fill="#005d8e"/><path d="M 339.369 613.38 L 337.429 605.227 L 350.994 602.006 L 349.852 597.18 L 336.29 600.4 L 334.732 593.84 L 350.486 590.099 L 349.343 585.29 L 327.902 590.369 L 334.82 619.535 L 356.254 614.456 L 355.118 609.638 Z" fill="#005d8e"/><path d="M 484.736 505.567 c -6.823 -4.902 -15.346 -4.319 -19.382 1.3 l -7.304 10.168 l 24.339 17.487 l 7.302 -10.165 C 493.919 518.482 491.868 510.699 484.736 505.567 z M 485.056 522.6 l -3.148 4.374 l -16.539 -11.884 l 3.142 -4.378 c 2.579 -3.583 7.948 -3.711 12.701 -.29 C 486.816 514.441 488.057 518.417 485.056 522.6 z" fill="#005d8e"/><path d="M 450.021 526.479 L 464.055 541.057 L 441.166 535.002 L 436.42 539.573 L 457.203 561.171 L 461.416 557.121 L 446.866 542.003 L 470.589 548.281 L 475.01 544.032 L 454.224 522.439 Z" fill="#005d8e"/><path d="M 175.854 537.838 l -14.137 14.464 c -2.322 2.373 -6.16 2.373 -8.566 .011 c -2.413 -2.357 -2.49 -6.181 -.168 -8.55 l 14.137 -14.468 l -4.179 -4.088 l -15.401 15.752 c -3.479 3.562 -2.464 10.176 2.254 14.78 c 4.726 4.624 11.359 5.49 14.835 1.937 l 15.407 -15.753 L 175.854 537.838 z" fill="#005d8e"/><path d="M 151.78 508.627 c -4.754 -6.737 -13.727 -7.704 -21.292 -2.37 c -7.592 5.356 -9.656 14.135 -4.911 20.859 c 4.733 6.707 13.703 7.718 21.293 2.362 C 154.452 524.131 156.512 515.33 151.78 508.627 z M 143.472 524.612 c -5.192 3.66 -11.131 3.504 -13.854 -.348 c -2.72 -3.859 -.88 -9.522 4.247 -13.14 c 5.179 -3.655 11.148 -3.521 13.857 .325 C 150.452 515.316 148.604 520.994 143.472 524.612 z" fill="#005d8e"/><path d="M 195.985 553.71 l -10.207 -7.252 l -17.352 24.434 l 10.203 7.251 c 5.896 4.195 13.673 2.103 18.76 -5.058 C 202.254 566.232 201.632 557.718 195.985 553.71 z M 192.514 569.589 c -3.996 5.619 -7.96 6.881 -12.147 3.909 l -4.399 -3.129 l 11.793 -16.604 l 4.399 3.131 C 195.75 559.441 195.906 564.81 192.514 569.589 z" fill="#005d8e"/><path d="M 246.186 580.045 l -14.047 -5.845 l -11.515 27.677 l 13.628 5.668 c 1.386 .575 2.827 .888 4.23 .874 c 3.449 -.015 6.445 -1.944 7.704 -4.976 c 1.429 -3.434 .237 -7.584 -2.743 -9.669 c 3.523 .222 5.917 -1.07 7.077 -3.866 C 252.185 585.921 250.352 581.784 246.186 580.045 z M 240.959 600.4 c -1.036 2.498 -3.91 3.278 -7.067 1.965 l -6.086 -2.532 l 3.453 -8.3 l 6.322 2.633 C 240.71 595.461 242.016 597.876 240.959 600.4 z M 245.117 588.189 c -.942 2.273 -3.263 3.046 -5.817 1.982 l -6.373 -2.654 l 2.883 -6.919 l 6.865 2.858 C 244.862 584.368 245.882 586.354 245.117 588.189 z" fill="#005d8e"/><path d="M 207.047 578.186 H 211.845 V 590.176 H 207.047 Z" fill="#005d8e" transform="matrix(.4529 -.8916 .8916 .4529 -406.2478 506.358)"/><path d="M 253.958 613.819 L 275.386 618.927 L 276.532 614.117 L 260.79 610.361 L 262.733 602.21 L 276.293 605.446 L 277.443 600.62 L 263.884 597.388 L 265.442 590.821 L 281.189 594.585 L 282.338 589.772 L 260.912 584.655 Z" fill="#005d8e"/><path d="M 276.022 602.519 H 305.994 V 608.364 H 276.022 Z" fill="#005d8e" transform="matrix(.051 -.9987 .9987 .051 -328.4801 865.2115)"/></svg>
